X: 28
T: Lady Walpole Reel [2]
M:2/4
L:1/8
S:Viola "Mom" Ruth - Pioneer Western Folk Tunes (1948)
Z:AK/Fiddler's Companion
K:G
(B/c/)|d/B/d/B/ d/g/f/e/|d/B/d/B/ d/g/f/e/|d/B/d/B/ e/d/c/B/|
cA A(B/c/)|d/B/d/B/ d/g/f/e/|d/B/d/B/ d/g/f/e/|d/e/c/d/ B/c/A/B/|GG G||
(B/c/)|d/c/B/c/ de/d/|c/B/A/B/ c(d/B/)|B/G/B/G/ c/B/A/G/|AA A(B/c/)|
d/c/B/c/ de/d/|c/B/A/B/ c(B/c/)|d/g/f/e/ d/c/B/A/|GG G||

%%sep 1 1 500
